X:85
T: Nelly Mahony's
S: "Johnny O'Leary of Sliabh Luachra" (#43)
Z: B.Black
L: 1/8
M: 12/8
Q: 350
R: slide
K: D
e3 efe d2f a2f|e2e efe d2A B2A|
Bee efe d2f a2f|1 efe gfe d3 d3 :|2\
efe gfe d3 dcB||
Aaa faa Aaa faf|efe gfe d2A B2A|
Aaa faa Aaa faf|efe gfe d3 d3|
A2a f2a A2a faf|e2e f2e d2A B2A|
A2a f2a Aaa faf|efe gfe d3 d3 ||
